miniprogram/assets/figma/review-tab/icon-star.svg

<svg width="20" height="20" viewBox="0 0 20 20" fill="none" xmlns="http://www.w3.org/2000/svg">
<path d="M11.5015 2.40023C10.8955 1.14295 9.1049 1.14296 8.49884 2.40023L6.7232 6.08382C6.69266 6.14717 6.63222 6.19084 6.56249 6.19994L2.49347 6.7309C1.09848 6.91293 0.542602 8.63474 1.5678 9.59812L4.53179 12.3834C4.58355 12.432 4.60697 12.5037 4.59391 12.5735L3.8477 16.5627C3.59028 17.9388 5.04149 18.9999 6.27475 18.3373L9.90158 16.3887C9.96315 16.3557 10.0372 16.3557 10.0988 16.3887L13.7256 18.3373C14.9589 18.9999 16.4101 17.9388 16.1527 16.5627L15.4065 12.5735C15.3934 12.5037 15.4168 12.432 15.4686 12.3834L18.4326 9.59812C19.4578 8.63474 18.9019 6.91293 17.5069 6.7309L13.4379 6.19994C13.3681 6.19084 13.3077 6.14717 13.2772 6.08382L11.5015 2.40023Z" fill="#F97316"/>
</svg>

<svg xmlns="http://www.w3.org/2000/svg" width="20" height="20" fill="none" viewBox="0 0 20 20"><path fill="#f97316" d="M11.502 2.4c-.607-1.257-2.397-1.257-3.003 0L6.723 6.084a.21.21 0 0 1-.16.116l-4.07.53c-1.395.183-1.95 1.905-.925 2.868l2.964 2.785c.052.049.075.12.062.19l-.746 3.99C3.59 17.939 5.04 19 6.275 18.337l3.627-1.948a.21.21 0 0 1 .197 0l3.627 1.948c1.233.663 2.684-.398 2.427-1.774l-.746-3.99a.21.21 0 0 1 .062-.19l2.964-2.785c1.025-.963.469-2.685-.926-2.867l-4.07-.531a.21.21 0 0 1-.16-.116z"/></svg>
